svg/fo.svg

<?xml version="1.0" encoding="UTF-8"?>
<svg id="Flag_of_the_Faroe Islands" width="1100" height="800" version="1.0" viewBox="0 0 22 16" xmlns="http://www.w3.org/2000/svg">
  <rect id="bg" width="22" height="16" fill="#fff"/>
  <path id="blue" d="m0 10h6v6h4v-6h12v-4h-12v-6h-4v6h-6z" fill="#0065BD"/>
  <path id="red" d="m0 9h7v7h2v-7h13v-2h-13v-7h-2v7h-7z" fill="#ED2939"/>
</svg>

<?xml version="1.0" encoding="UTF-8" standalone="no"?>
<svg id="Flag_of_the_Faroe Islands" xmlns="http://www.w3.org/2000/svg" height="800" width="1100" version="1.0" viewBox="0 0 22 16">
<rect id="bg" width="22" fill="#fff" height="16"/>
<path id="blue" d="m 0,10 6,0 0,6 4,0 0,-6 12,0 L 22,6 10,6 10,0 6,0 6,6 0,6 z" fill="#0065BD"/>
<path id="red" d="M 0,9 7,9 7,16 9,16 9,9 22,9 22,7 9,7 9,0 7,0 7,7 0,7 z" fill="#ED2939"/>
</svg>
